X: 7
T:Lilliburlero!
M:8/8
L:1/8
C:Traditional
S:Lilliburlero!
K:G
D|GAGB2B|ABAc3|
BdGc2B|AGFG3|GAGB2B|
ABAc3|BdGc2B|AGFG3|
g2de2d|g2de2d|defgfe|
dcBA3|dcBABc|dcBABc|
BdGc2B|AGFG2:|
